img/svg/advantages-decorate-desk-top.svg

<svg width="507" height="150" viewBox="0 0 507 150" fill="none" xmlns="http://www.w3.org/2000/svg">
<g opacity="0.13">
<g clip-path="url(#clip0)">
<path d="M613.407 -275.839L614.793 -271.626L577.159 -259.956L508.004 -284.896L437.765 -263.192L368.609 -288.133L298.239 -266.567L228.945 -291.376L158.707 -269.672L89.5513 -294.612L19.3127 -272.908L-17.7387 -286.313L-16.1588 -290.457L19.4254 -277.762L89.6578 -299.196L158.82 -274.525L229.19 -296.091L298.345 -271.15L368.584 -292.854L437.878 -268.045L508.11 -289.48L577.272 -264.809L613.407 -275.839Z" fill="#B69D6D"/>
<path d="M632.5 -255.838L633.886 -251.624L576.552 -233.802L507.396 -258.743L437.158 -237.039L368.002 -261.979L297.632 -240.413L228.338 -265.222L158.1 -243.518L88.9441 -268.459L18.7055 -246.755L-37.7401 -267.219L-36.1602 -271.364L18.8182 -251.608L89.1885 -273.174L158.212 -248.372L228.583 -269.938L297.738 -244.997L367.977 -266.701L437.27 -241.892L507.371 -263.464L576.664 -238.655L632.5 -255.838Z" fill="#B69D6D"/>
<path d="M659 -229.46L657.42 -225.315L646.183 -229.353L575.945 -207.649L506.789 -232.59L436.55 -210.886L367.395 -235.826L297.024 -214.26L227.731 -239.069L157.492 -217.365L88.3368 -242.306L18.0982 -220.602L-51.0574 -245.542L-62.4691 -242.031L-63.855 -246.244L-51.0827 -250.264L18.2108 -225.455L88.5812 -247.021L157.605 -222.218L227.975 -243.784L297.131 -218.844L367.37 -240.548L436.663 -215.739L506.764 -237.311L576.057 -212.502L646.428 -234.068L659 -229.46Z" fill="#B69D6D"/>
<path d="M689.161 -192.341L687.713 -188.058L645.576 -203.2L575.337 -181.496L506.182 -206.436L435.943 -184.732L366.788 -209.673L296.417 -188.107L227.124 -212.916L156.885 -191.212L87.7295 -216.152L17.4909 -194.448L-51.6647 -219.389L-94.4587 -206.22L-95.7066 -210.565L-51.6899 -224.11L17.6036 -199.302L87.9739 -220.868L156.998 -196.065L227.368 -217.631L296.524 -192.69L366.762 -214.394L436.056 -189.585L506.156 -211.158L575.45 -186.349L645.82 -207.915L689.161 -192.341Z" fill="#B69D6D"/>
<path d="M669.022 -173.116L667.711 -168.965L644.969 -177.046L574.73 -155.342L505.574 -180.283L435.336 -158.579L366.18 -183.52L295.81 -161.954L226.516 -186.762L156.278 -165.059L87.1222 -189.999L16.8836 -168.295L-52.2719 -193.236L-75.3651 -186.219L-76.4813 -190.426L-52.2972 -197.957L16.9963 -173.148L87.3666 -194.714L156.391 -169.912L226.761 -191.478L295.916 -166.537L366.155 -188.241L435.449 -163.432L505.549 -185.004L574.843 -160.196L645.213 -181.762L669.022 -173.116Z" fill="#B69D6D"/>
<path d="M649.02 -154.022L647.572 -149.739L644.361 -150.893L574.123 -129.189L504.967 -154.13L434.729 -132.426L365.573 -157.366L295.203 -135.8L225.909 -160.609L155.671 -138.905L86.515 -163.846L16.2764 -142.142L-52.8792 -167.082L-56.1397 -166.079L-57.3876 -170.424L-52.9044 -171.804L16.3891 -146.995L86.7594 -168.561L155.783 -143.758L226.154 -165.324L295.309 -140.384L365.548 -162.088L434.841 -137.279L504.942 -158.851L574.235 -134.042L644.606 -155.608L649.02 -154.022Z" fill="#B69D6D"/>
<path d="M611.394 -119.421L612.779 -115.208L573.515 -103.036L504.36 -127.976L433.99 -106.41L364.966 -131.213L294.595 -109.647L225.302 -134.456L155.201 -112.884L85.9077 -137.693L15.6691 -115.989L-22.9875 -129.97L-21.4076 -134.115L15.7818 -120.842L86.1521 -142.408L155.176 -117.605L225.546 -139.171L294.702 -114.231L364.94 -135.935L434.234 -111.126L504.335 -132.698L573.628 -107.889L611.394 -119.421Z" fill="#B69D6D"/>
<path d="M573.153 -81.5978L571.704 -77.3151L503.753 -101.823L433.382 -80.2571L364.358 -105.06L293.988 -83.4938L224.695 -108.303L154.594 -86.7304L85.3005 -111.539L16.2846 -90.2116L15.0366 -94.5569L85.5448 -116.255L154.569 -91.4519L224.939 -113.018L294.095 -88.0773L364.333 -109.781L433.627 -84.9724L503.727 -106.545L573.153 -81.5978Z" fill="#B69D6D"/>
<path d="M553.151 -62.5041L551.703 -58.2215L503.145 -75.6698L432.775 -54.1038L363.751 -78.9065L293.381 -57.3405L224.087 -82.1494L153.987 -60.5771L84.6932 -85.386L35.3782 -70.2102L34.1303 -74.5555L84.9376 -90.1013L153.961 -65.2986L224.332 -86.8646L293.487 -61.9241L363.726 -83.628L433.019 -58.8191L503.12 -80.3913L553.151 -62.5041Z" fill="#B69D6D"/>
<path d="M533.012 -43.2788L531.564 -38.9961L502.538 -49.5166L432.168 -27.9506L363.144 -52.7532L292.774 -31.1872L223.48 -55.9961L153.379 -34.4239L84.086 -59.2328L54.6036 -50.0708L53.3556 -54.4161L84.3304 -63.948L153.354 -39.1454L223.725 -60.7114L292.88 -35.7708L363.119 -57.4747L432.412 -32.6658L502.513 -54.2381L533.012 -43.2788Z" fill="#B69D6D"/>
<path d="M513.01 -24.1851L511.562 -19.9025L501.931 -23.3633L431.561 -1.79734L362.537 -26.6L292.166 -5.03398L222.873 -29.8429L152.772 -8.27062L83.4787 -33.0795L73.6972 -30.0694L72.4493 -34.4147L83.7231 -37.7947L152.747 -12.9921L223.117 -34.5581L292.273 -9.61755L362.511 -31.3215L431.805 -6.51258L501.906 -28.0848L513.01 -24.1851Z" fill="#B69D6D"/>
<path d="M482.143 3.96317L483.391 8.30842L430.953 24.3559L361.929 -0.446693L291.559 21.1193L222.266 -3.6896L152.165 17.8826L100.529 -0.581387L101.977 -4.86404L152.14 13.1611L222.51 -8.40485L291.666 16.5357L361.904 -5.16821L431.198 19.6407L482.143 3.96317Z" fill="#B69D6D"/>
<path d="M442.002 42.2822L443.25 46.6274L430.346 50.5092L361.322 25.7066L290.952 47.2725L221.658 22.4637L151.558 44.0359L138.848 39.5594L140.296 35.2768L151.532 39.3144L221.903 17.7484L291.058 42.689L361.297 20.9851L430.59 45.7939L442.002 42.2822Z" fill="#B69D6D"/>
<path d="M417.142 67.3328L415.693 71.6154L360.715 51.8598L290.345 73.4258L221.051 48.6169L165.215 65.7995L163.967 61.4542L221.295 43.9017L290.451 68.8422L360.69 47.1383L417.142 67.3328Z" fill="#B69D6D"/>
<path d="M397.002 86.5581L395.554 90.8407L360.108 78.0131L289.737 99.5791L220.444 74.7702L184.44 85.9388L183.192 81.5936L220.688 70.0549L289.844 94.9955L360.082 73.2916L397.002 86.5581Z" fill="#B69D6D"/>
<path d="M377.001 105.652L375.552 109.934L359.5 104.166L289.13 125.732L219.837 100.923L203.534 105.94L202.286 101.595L220.081 96.2082L289.237 121.149L359.475 99.4449L377.001 105.652Z" fill="#B69D6D"/>
<path d="M352.754 127.479L354.14 131.693L288.523 151.886L223.913 128.669L225.493 124.524L288.629 147.302L352.754 127.479Z" fill="#B69D6D"/>
<path d="M312.614 165.798L314 170.012L287.916 178.039L262.232 168.81L263.812 164.665L288.022 173.455L312.614 165.798Z" fill="#B69D6D"/>
</g>
</g>
<defs>
<clipPath id="clip0">
<rect x="287.515" y="195.295" width="562" height="562" transform="rotate(-133.67 287.515 195.295)" fill="white"/>
</clipPath>
</defs>
</svg>

<svg width="507" height="150" viewBox="0 0 507 150" fill="none" xmlns="http://www.w3.org/2000/svg"><g clip-path="url(#clip0)" fill="#B69D6D" opacity=".13"><path d="M613.407-275.839l1.386 4.213-37.634 11.67-69.155-24.94-70.239 21.704-69.156-24.941-70.37 21.566-69.294-24.809-70.238 21.704-69.156-24.94-70.238 21.704-37.052-13.405 1.58-4.144 35.584 12.695 70.233-21.434 69.162 24.671 70.37-21.566 69.155 24.941 70.239-21.704 69.294 24.809 70.232-21.435 69.162 24.671 36.135-11.03z"/><path d="M632.5-255.838l1.386 4.214-57.334 17.822-69.156-24.941-70.238 21.704-69.156-24.94-70.37 21.566-69.294-24.809-70.238 21.704-69.156-24.941-70.239 21.704-56.445-20.464 1.58-4.145 54.978 19.756 70.37-21.566 69.024 24.802 70.371-21.566 69.155 24.941 70.239-21.704 69.293 24.809 70.101-21.572 69.293 24.809 55.836-17.183z"/><path d="M659-229.46l-1.58 4.145-11.237-4.038-70.238 21.704-69.156-24.941-70.239 21.704-69.155-24.94-70.371 21.566-69.293-24.809-70.239 21.704-69.155-24.941-70.239 21.704-69.155-24.94-11.412 3.511-1.386-4.213 12.772-4.02 69.294 24.809 70.37-21.566 69.024 24.803 70.37-21.566 69.156 24.94 70.239-21.704 69.293 24.809 70.101-21.572 69.293 24.809 70.371-21.566L659-229.46z"/><path d="M689.161-192.341l-1.448 4.283-42.137-15.142-70.239 21.704-69.155-24.94-70.239 21.704-69.155-24.941-70.371 21.566-69.293-24.809-70.239 21.704-69.155-24.94-70.24 21.704-69.155-24.941-42.794 13.169-1.248-4.345 44.017-13.545 69.294 24.808 70.37-21.566 69.024 24.803 70.37-21.566 69.156 24.941 70.238-21.704 69.294 24.809 70.1-21.573 69.294 24.809 70.37-21.566 43.341 15.574z"/><path d="M669.022-173.116l-1.311 4.151-22.742-8.081-70.239 21.704-69.156-24.941-70.238 21.704-69.156-24.941-70.37 21.566-69.294-24.808-70.238 21.703-69.156-24.94-70.238 21.704-69.156-24.941-23.093 7.017-1.116-4.207 24.184-7.531 69.293 24.809 70.37-21.566 69.025 24.802 70.37-21.566 69.155 24.941 70.239-21.704 69.294 24.809 70.1-21.572 69.294 24.808 70.37-21.566 23.809 8.646z"/><path d="M649.02-154.022l-1.448 4.283-3.211-1.154-70.238 21.704-69.156-24.941-70.238 21.704-69.156-24.94-70.37 21.566-69.294-24.809-70.238 21.704-69.156-24.941-70.239 21.704-69.155-24.94-3.26 1.003-1.249-4.345 4.484-1.38 69.293 24.809 70.37-21.566 69.024 24.803 70.371-21.566 69.155 24.94 70.239-21.704 69.293 24.809 70.101-21.572 69.293 24.809 70.371-21.566 4.414 1.586z"/><path d="M611.394-119.421l1.385 4.213-39.264 12.172-69.155-24.94-70.37 21.566-69.024-24.803-70.371 21.566-69.293-24.809-70.101 21.572-69.293-24.809-70.239 21.704-38.656-13.981 1.58-4.145 37.189 13.273 70.37-21.566 69.024 24.803 70.37-21.566 69.156 24.94 70.238-21.704 69.294 24.809 70.101-21.572 69.293 24.809 37.766-11.532z"/><path d="M573.153-81.598l-1.449 4.283-67.951-24.508-70.371 21.566-69.024-24.803-70.37 21.566-69.293-24.809-70.101 21.573-69.293-24.809-69.016 21.327-1.248-4.345 70.508-21.698 69.024 24.803 70.37-21.566 69.156 24.94 70.238-21.703 69.294 24.809 70.1-21.573 69.426 24.947z"/><path d="M553.151-62.504l-1.448 4.282-48.558-17.448-70.37 21.566-69.024-24.802-70.37 21.566-69.294-24.81-70.1 21.573-69.294-24.809L35.378-70.21l-1.248-4.346L84.938-90.1l69.022 24.8 70.371-21.566 69.155 24.94 70.239-21.703 69.293 24.809 70.101-21.572 50.031 17.887z"/><path d="M533.012-43.279l-1.448 4.283-29.026-10.52-70.37 21.565-69.024-24.802-70.37 21.566-69.294-24.81-70.101 21.573-69.293-24.809-29.482 9.162-1.248-4.345 30.974-9.532 69.024 24.803 70.371-21.566 69.155 24.94 70.239-21.704 69.293 24.81 70.101-21.573 30.499 10.96z"/><path d="M513.01-24.185l-1.448 4.282-9.631-3.46-70.37 21.566L362.537-26.6 292.166-5.034l-69.293-24.809L152.772-8.27 83.479-33.08l-9.782 3.01-1.248-4.345 11.274-3.38 69.024 24.803 70.37-21.566 69.156 24.94 70.238-21.703 69.294 24.808 70.101-21.572 11.104 3.9z"/><path d="M482.143 3.963l1.248 4.345-52.438 16.048L361.929-.447l-70.37 21.566L222.266-3.69l-70.101 21.573L100.529-.581l1.448-4.283 50.163 18.025 70.37-21.566 69.156 24.94 70.238-21.703 69.294 24.809 50.945-15.678z"/><path d="M442.002 42.282l1.248 4.345-12.904 3.882-69.024-24.802-70.37 21.566-69.294-24.81-70.1 21.573-12.71-4.477 1.448-4.282 11.236 4.037 70.371-21.566 69.155 24.941 70.239-21.704 69.293 24.809 11.412-3.512z"/><path d="M417.142 67.333l-1.449 4.282-54.978-19.755-70.37 21.566-69.294-24.81L165.215 65.8l-1.248-4.345 57.328-17.552 69.156 24.94 70.239-21.704 56.452 20.195z"/><path d="M397.002 86.558l-1.448 4.283-35.446-12.828-70.371 21.566-69.293-24.809-36.004 11.17-1.248-4.345 37.496-11.54 69.156 24.942 70.238-21.704 36.92 13.266z"/><path d="M377.001 105.652l-1.449 4.282-16.052-5.768-70.37 21.566-69.293-24.809-16.303 5.017-1.248-4.345 17.795-5.387 69.156 24.941 70.238-21.704 17.526 6.207zm-24.247 21.827l1.386 4.214-65.617 20.193-64.61-23.217 1.58-4.145 63.136 22.778 64.125-19.823zm-40.14 38.319l1.386 4.214-26.084 8.027-25.684-9.229 1.58-4.145 24.21 8.79 24.592-7.657z"/></g><defs><clipPath id="clip0"><path transform="rotate(-133.67 287.515 195.295)" fill="#fff" d="M287.515 195.295h562v562h-562z"/></clipPath></defs></svg>
